X:6498
T:The Ballydesmond Polka #1
O:england
M:2/4
L:1/8
Q:300
C:Trad
R:polka
K:ADor
B|c2 B2|A2 G>A|Bd ed|g3 d|
ea g/2a/2g/2e/2|dB GA/2B/2|ce dB|A2 A:|
B/2d/2|ea ag/2e/2|dg g>d|ea ab|g2 ed|
ea g/2a/2g/2e/2|dB GA/2B/2|ce dB|A2 A:|


